src/assets/images/icons/star-half-s-line.svg

<svg xmlns="http://www.w3.org/2000/svg" width="24" height="24" fill="none" viewBox="0 0 24 24"><g clip-path="url(#a)"><path fill="#181d27" d="m12 14.656 2.817 1.72-.766-3.21 2.507-2.147-3.29-.264L12 7.708zM12 17l-5.878 3.59 1.598-6.7-5.23-4.48 6.865-.55L12 2.5l2.645 6.36 6.866.55-5.231 4.48 1.598 6.7z"/></g><defs><clipPath id="a"><path fill="#fff" d="M0 0h24v24H0z"/></clipPath></defs></svg>

<svg width="24" height="24" viewBox="0 0 24 24" fill="none" xmlns="http://www.w3.org/2000/svg">
<g clip-path="url(#clip0_58_16752)">
<path d="M12 14.656L14.817 16.376L14.051 13.166L16.558 11.019L13.268 10.755L12 7.708V14.656ZM12 17L6.12199 20.59L7.71999 13.89L2.48999 9.41L9.35499 8.86L12 2.5L14.645 8.86L21.511 9.41L16.28 13.89L17.878 20.59L12 17Z" fill="#181D27"/>
</g>
<defs>
<clipPath id="clip0_58_16752">
<rect width="24" height="24" fill="white"/>
</clipPath>
</defs>
</svg>
